assets/sonr-icons/social-youtube.svg

<svg xmlns="http://www.w3.org/2000/svg" width="24" height="24" fill="none" viewBox="0 0 24 24"><path fill="#000" d="M5.58998 4.20998C7.21398 4.09998 9.40098 4.00098 12 4.00098C14.599 4.00098 16.786 4.09998 18.41 4.20998C20.271 4.33598 21.708 5.81698 21.828 7.67898C21.919 9.06898 21.999 10.68 21.999 12.001C21.999 13.322 21.918 14.933 21.828 16.323C21.707 18.184 20.27 19.666 18.41 19.792C16.785 19.902 14.599 20.001 12 20.001C9.40098 20.001 7.21398 19.902 5.58998 19.792C3.72798 19.666 2.29198 18.185 2.17198 16.323C2.08198 14.933 2.00098 13.322 2.00098 12.001C2.00098 10.68 2.08198 9.06898 2.17198 7.67898C2.29298 5.81698 3.72998 4.33598 5.58998 4.20998ZM11.552 9.16798C10.887 8.72798 9.99998 9.20498 9.99998 10.002V13.999C9.99998 14.796 10.887 15.273 11.552 14.833L14.545 12.851C15.154 12.448 15.154 11.554 14.545 11.15L11.552 9.16798Z"/></svg>

<svg xmlns="http://www.w3.org/2000/svg" width="24" height="24" fill="none"><path fill="currentColor" d="M5.59 4.21A96 96 0 0 1 12 4.001c2.599 0 4.786.099 6.41.209 1.861.126 3.298 1.607 3.418 3.469.091 1.39.171 3.001.171 4.322s-.081 2.932-.171 4.322c-.121 1.861-1.558 3.343-3.418 3.469-1.625.11-3.811.209-6.41.209s-4.786-.099-6.41-.209c-1.862-.126-3.298-1.607-3.418-3.469-.09-1.39-.171-3.001-.171-4.322s.081-2.932.171-4.322C2.293 5.817 3.73 4.336 5.59 4.21m5.962 4.958a1 1 0 0 0-1.552.834v3.997a1 1 0 0 0 1.552.834l2.993-1.982a1.02 1.02 0 0 0 0-1.701z"/></svg>
